public/images/poses-sm/Lotus.svg

<svg width="800" height="900" fill="none" xmlns="http://www.w3.org/2000/svg"><path d="M144.872 647.672c2.53 5.061 7.086 8.604 11.641 11.032 8.283 4.421 17.898 5.517 27.134 3.825 6.773-1.243 15.952-3.832 27.197-9.102 15.746-7.389 52.597-49.271 78.868-80.715 18.951-22.684 24.746-41.335 29.129-70.568l12.652-88.581s44.284-41.128 9.489-63.273c0 0-31.631 6.327-41.119 18.982-18.691 24.926-25.305 139.201-28.467 148.691-2.702 8.098-37.635 69.165-57.656 94.777-4.716 6.04-13.775 16.391-21.421 15.952-11.981-.685-28.606-8.39-34.793-6.326-.002-.002-22.143 6.324-12.654 25.306Z" fill="#fff" stroke="#000" stroke-width="5" stroke-miterlimit="10"/><path d="M144.872 647.672c2.53 5.061 7.086 8.604 11.641 11.032 8.283 4.421 17.898 5.517 27.134 3.825 6.773-1.243 15.952-3.832 27.197-9.102 15.746-7.389 52.597-49.271 78.868-80.715 18.951-22.684 24.746-41.335 29.129-70.568l12.652-88.581s44.284-41.128 9.489-63.273c0 0-31.631 6.327-41.119 18.982-18.691 24.926-25.305 139.201-28.467 148.691-2.702 8.098-37.635 69.165-57.656 94.777-4.716 6.04-13.775 16.391-21.421 15.952-11.981-.685-28.606-8.39-34.793-6.326-.002-.002-22.143 6.324-12.654 25.306Z" stroke="#000" stroke-width="5" stroke-miterlimit="10"/><path d="M654.124 647.672c-2.529 5.061-7.085 8.604-11.638 11.032-8.284 4.421-17.9 5.517-27.136 3.825-6.774-1.243-15.952-3.832-27.199-9.102-15.744-7.389-52.598-49.271-78.865-80.715-18.951-22.684-24.743-41.335-29.129-70.568l-12.651-88.581s-44.284-41.128-9.49-63.273c0 0 31.63 6.327 41.12 18.982 18.691 24.926 25.305 139.201 28.468 148.691 2.7 8.098 37.637 69.165 57.658 94.777 4.714 6.04 13.772 16.391 21.419 15.952 11.978-.685 28.606-8.39 34.793-6.326-.001-.002 22.14 6.324 12.65 25.306Z" fill="#fff" stroke="#000" stroke-width="5" stroke-miterlimit="10"/><path d="M654.124 647.672c-2.529 5.061-7.085 8.604-11.638 11.032-8.284 4.421-17.9 5.517-27.136 3.825-6.774-1.243-15.952-3.832-27.199-9.102-15.744-7.389-52.598-49.271-78.865-80.715-18.951-22.684-24.743-41.335-29.129-70.568l-12.651-88.581s-44.284-41.128-9.49-63.273c0 0 31.63 6.327 41.12 18.982 18.691 24.926 25.305 139.201 28.468 148.691 2.7 8.098 37.637 69.165 57.658 94.777 4.714 6.04 13.772 16.391 21.419 15.952 11.978-.685 28.606-8.39 34.793-6.326-.001-.002 22.14 6.324 12.65 25.306Z" stroke="#000" stroke-width="5" stroke-miterlimit="10"/><path d="M492.569 606.545c-6.326-15.818-25.304-60.11-25.304-60.11l-61.862 11.249c-3.98.726-8.063.726-12.044 0l-61.864-11.249s-18.978 44.292-25.304 60.11c-6.326 15.819-136.012 44.291-132.849 91.746 3.164 47.454 66.425 44.292 98.055 37.964 25.275-5.058 87.44-42.067 126.522-60.111 39.08 18.044 104.17 55.053 129.443 60.111 31.631 6.326 94.892 9.49 98.056-37.964 3.163-47.455-126.522-75.927-132.849-91.746Z" fill="#fff" stroke="#000" stroke-width="5" stroke-miterlimit="10"/><path d="M492.569 606.545c-6.326-15.818-25.304-60.11-25.304-60.11l-61.862 11.249c-3.98.726-8.063.726-12.044 0l-61.864-11.249s-18.978 44.292-25.304 60.11c-6.326 15.819-136.012 44.291-132.849 91.746 3.164 47.454 66.425 44.292 98.055 37.964 25.275-5.058 87.44-42.067 126.522-60.111 39.08 18.044 104.17 55.053 129.443 60.111 31.631 6.326 94.892 9.49 98.056-37.964 3.163-47.455-126.522-75.927-132.849-91.746Z" stroke="#000" stroke-width="5" stroke-miterlimit="10"/><path d="M466.458 412.913c-11.68-34.064-5.872-63.446-5.872-63.446s-13.462-3.568-29.032-15.735c-15.569-12.166-11.681-53.211-11.681-53.211s-.809.167-19.783.167c-18.975 0-19.974-.167-19.974-.167s4.077 41.045-11.492 53.211c-15.572 12.167-29.028 15.735-29.028 15.735s5.804 29.381-5.873 63.446c0 0 12.368 72.205-2.231 133.522 0 0 29.186 12.123 68.598 12.123 39.41 0 67.414-12.123 67.414-12.123-14.598-61.317-1.046-133.522-1.046-133.522Z" fill="#fff" stroke="#000" stroke-width="5" stroke-miterlimit="10"/><path d="M466.458 412.913c-11.68-34.064-5.872-63.446-5.872-63.446s-13.462-3.568-29.032-15.735c-15.569-12.166-11.681-53.211-11.681-53.211s-.809.167-19.783.167c-18.975 0-19.974-.167-19.974-.167s4.077 41.045-11.492 53.211c-15.572 12.167-29.028 15.735-29.028 15.735s5.804 29.381-5.873 63.446c0 0 12.368 72.205-2.231 133.522 0 0 29.186 12.123 68.598 12.123 39.41 0 67.414-12.123 67.414-12.123-14.598-61.317-1.046-133.522-1.046-133.522Z" stroke="#000" stroke-width="5" stroke-miterlimit="10"/><path d="M365.444 195.657c-22.821 47.319 13.207 104.15 33.933 104.425 20.728.272 58.242-55.592 36.673-103.495-13.595-30.195-56.219-30.757-70.606-.93Z" fill="#fff" stroke="#000" stroke-width="5" stroke-miterlimit="10"/><path d="M365.444 195.657c-22.821 47.319 13.207 104.15 33.933 104.425 20.728.272 58.242-55.592 36.673-103.495-13.595-30.195-56.219-30.757-70.606-.93Z" stroke="#000" stroke-width="5" stroke-miterlimit="10"/><path d="M533.836 252.63c-18.194-9.995-13.579-22.813-29.727-35.628-16.144-12.815-36.146-4.162-44.593-24.868-8.372-20.514-35.634-32.23-59.391-31.942h-.073c-23.757-.288-51.023 11.428-59.388 31.942-8.448 20.706-28.45 12.052-44.593 24.868-16.148 12.815-11.533 25.633-29.73 35.628-18.197 9.998-19.678 9.074-18.966 16.921 1.05 11.574 42.429 6.995 73.466 7.789 6.079.154 28.235 6.315 34.161 7.702 12.117 2.84 27.682 2.438 28.004-1.906.516-6.923-1.704-23.387-6.426-31.812-4.72-8.428-14.472-5.71-14.472-18.074 0-11.533 4.735-7.044 15.626-17.301 9.6-9.047 19.213-19.52 22.354-28.028 3.141 8.508 12.755 18.982 22.354 28.028 10.892 10.256 15.627 5.768 15.627 17.301 0 12.364-9.75 9.645-14.472 18.074-4.723 8.425-6.938 24.889-6.424 31.812.322 4.344 15.887 4.746 28.003 1.906 5.925-1.387 28.079-7.548 34.164-7.702 31.031-.795 72.411 3.785 73.46-7.789.716-7.847-.764-6.923-18.964-16.921Z" fill="#100200" stroke="#000" stroke-width="5" stroke-miterlimit="10"/><path d="M355.102 342.973s16.897 25.439 45.229 25.439 45.23-25.439 45.23-25.439" stroke="#000" stroke-width="5" stroke-miterlimit="10"/><path d="M543.417 682.544s-17.966-20.11-82.24-28.543c16.513-5.552 42.67-14.434 53.771-18.596 34.795-13.092 22.141-13.092 22.141-13.092-9.489-5.24-53.771 4.745-82.24-3.111-28.467-7.856-34.794-.985-37.956 9.491-1.17 3.85-11.008 4.749-15.815 6.714-3.037-2.83-17.753-4.925-28.468-6.714-18.978-3.165-39.282-12.241-48.28-17.577-2.088-1.238-4.674-1.57-6.883-.575-3.037 1.366-4.935 4.962 4.554 14.388 4.998 4.974 14.424 11.786 24.988 18.778-59.37 7.54-94.575 25.744-94.575 25.744" fill="#fff"/><path d="M543.417 682.544s-17.966-20.11-82.24-28.543c16.513-5.552 42.67-14.434 53.771-18.596 34.795-13.092 22.141-13.092 22.141-13.092-9.489-5.24-53.771 4.745-82.24-3.111-28.467-7.856-34.794-.985-37.956 9.491-1.17 3.85-11.008 4.749-15.815 6.714-3.037-2.83-17.753-4.925-28.468-6.714-18.978-3.165-39.282-12.241-48.28-17.577-2.088-1.238-4.674-1.57-6.883-.575-3.037 1.366-4.935 4.962 4.554 14.388 4.998 4.974 14.424 11.786 24.988 18.778-59.37 7.54-94.575 25.744-94.575 25.744" stroke="#000" stroke-width="5" stroke-miterlimit="10"/><path d="M543.417 682.544s-17.966-20.11-82.24-28.543c16.513-5.552 42.67-14.434 53.771-18.596 34.795-13.092 22.141-13.092 22.141-13.092-9.489-5.24-53.771 4.745-82.24-3.111-28.467-7.856-34.794-.985-37.956 9.491-1.17 3.85-11.008 4.749-15.815 6.714-3.037-2.83-17.753-4.925-28.468-6.714-18.978-3.165-39.282-12.241-48.28-17.577-2.088-1.238-4.674-1.57-6.883-.575-3.037 1.366-4.935 4.962 4.554 14.388 4.998 4.974 14.424 11.786 24.988 18.778-59.37 7.54-94.575 25.744-94.575 25.744" stroke="#000" stroke-width="5" stroke-miterlimit="10"/><path d="M347.309 643.261c22.141 2.62 53.772-7.856 53.772-7.856s12.932 26.266 31.773 28.756" fill="#fff"/><path d="M347.309 643.261c22.141 2.62 53.772-7.856 53.772-7.856s12.932 26.266 31.773 28.756" stroke="#000" stroke-width="5" stroke-miterlimit="10"/><path d="M347.309 643.261c22.141 2.62 53.772-7.856 53.772-7.856s12.932 26.266 31.773 28.756" stroke="#000" stroke-width="5" stroke-miterlimit="10" stroke-linecap="square"/><path d="m395.035 677.489 75.631-26.653M395.035 677.489l75.631-26.653" stroke="#000" stroke-width="5" stroke-miterlimit="10"/></svg>

<svg width="800" height="900" viewBox="0 0 800 900" fill="none" xmlns="http://www.w3.org/2000/svg">
<path d="M144.872 647.672C147.402 652.733 151.958 656.276 156.513 658.704C164.796 663.125 174.411 664.221 183.647 662.529C190.42 661.286 199.599 658.697 210.844 653.427C226.59 646.038 263.441 604.156 289.712 572.712C308.663 550.028 314.458 531.377 318.841 502.144L331.493 413.563C331.493 413.563 375.777 372.435 340.982 350.29C340.982 350.29 309.351 356.617 299.863 369.272C281.172 394.198 274.558 508.473 271.396 517.963C268.694 526.061 233.761 587.128 213.74 612.74C209.024 618.78 199.965 629.131 192.319 628.692C180.338 628.007 163.713 620.302 157.526 622.366C157.524 622.364 135.383 628.69 144.872 647.672Z" fill="white" stroke="black" stroke-width="5" stroke-miterlimit="10"/>
<path d="M144.872 647.672C147.402 652.733 151.958 656.276 156.513 658.704C164.796 663.125 174.411 664.221 183.647 662.529C190.42 661.286 199.599 658.697 210.844 653.427C226.59 646.038 263.441 604.156 289.712 572.712C308.663 550.028 314.458 531.377 318.841 502.144L331.493 413.563C331.493 413.563 375.777 372.435 340.982 350.29C340.982 350.29 309.351 356.617 299.863 369.272C281.172 394.198 274.558 508.473 271.396 517.963C268.694 526.061 233.761 587.128 213.74 612.74C209.024 618.78 199.965 629.131 192.319 628.692C180.338 628.007 163.713 620.302 157.526 622.366C157.524 622.364 135.383 628.69 144.872 647.672Z" stroke="black" stroke-width="5" stroke-miterlimit="10"/>
<path d="M654.124 647.672C651.595 652.733 647.039 656.276 642.486 658.704C634.202 663.125 624.586 664.221 615.35 662.529C608.576 661.286 599.398 658.697 588.151 653.427C572.407 646.038 535.553 604.156 509.286 572.712C490.335 550.028 484.543 531.377 480.157 502.144L467.506 413.563C467.506 413.563 423.222 372.435 458.016 350.29C458.016 350.29 489.646 356.617 499.136 369.272C517.827 394.198 524.441 508.473 527.604 517.963C530.304 526.061 565.241 587.128 585.262 612.74C589.976 618.78 599.034 629.131 606.681 628.692C618.659 628.007 635.287 620.302 641.474 622.366C641.473 622.364 663.614 628.69 654.124 647.672Z" fill="white" stroke="black" stroke-width="5" stroke-miterlimit="10"/>
<path d="M654.124 647.672C651.595 652.733 647.039 656.276 642.486 658.704C634.202 663.125 624.586 664.221 615.35 662.529C608.576 661.286 599.398 658.697 588.151 653.427C572.407 646.038 535.553 604.156 509.286 572.712C490.335 550.028 484.543 531.377 480.157 502.144L467.506 413.563C467.506 413.563 423.222 372.435 458.016 350.29C458.016 350.29 489.646 356.617 499.136 369.272C517.827 394.198 524.441 508.473 527.604 517.963C530.304 526.061 565.241 587.128 585.262 612.74C589.976 618.78 599.034 629.131 606.681 628.692C618.659 628.007 635.287 620.302 641.474 622.366C641.473 622.364 663.614 628.69 654.124 647.672Z" stroke="black" stroke-width="5" stroke-miterlimit="10"/>
<path d="M492.569 606.545C486.243 590.727 467.265 546.435 467.265 546.435L405.403 557.684C401.423 558.41 397.34 558.41 393.359 557.684L331.495 546.435C331.495 546.435 312.517 590.727 306.191 606.545C299.865 622.364 170.179 650.836 173.342 698.291C176.506 745.745 239.767 742.583 271.397 736.255C296.672 731.197 358.837 694.188 397.919 676.144C436.999 694.188 502.089 731.197 527.362 736.255C558.993 742.581 622.254 745.745 625.418 698.291C628.581 650.836 498.896 622.364 492.569 606.545Z" fill="white" stroke="black" stroke-width="5" stroke-miterlimit="10"/>
<path d="M492.569 606.545C486.243 590.727 467.265 546.435 467.265 546.435L405.403 557.684C401.423 558.41 397.34 558.41 393.359 557.684L331.495 546.435C331.495 546.435 312.517 590.727 306.191 606.545C299.865 622.364 170.179 650.836 173.342 698.291C176.506 745.745 239.767 742.583 271.397 736.255C296.672 731.197 358.837 694.188 397.919 676.144C436.999 694.188 502.089 731.197 527.362 736.255C558.993 742.581 622.254 745.745 625.418 698.291C628.581 650.836 498.896 622.364 492.569 606.545Z" stroke="black" stroke-width="5" stroke-miterlimit="10"/>
<path d="M466.458 412.913C454.778 378.849 460.586 349.467 460.586 349.467C460.586 349.467 447.124 345.899 431.554 333.732C415.985 321.566 419.873 280.521 419.873 280.521C419.873 280.521 419.064 280.688 400.09 280.688C381.115 280.688 380.116 280.521 380.116 280.521C380.116 280.521 384.193 321.566 368.624 333.732C353.052 345.899 339.596 349.467 339.596 349.467C339.596 349.467 345.4 378.848 333.723 412.913C333.723 412.913 346.091 485.118 331.492 546.435C331.492 546.435 360.678 558.558 400.09 558.558C439.5 558.558 467.504 546.435 467.504 546.435C452.906 485.118 466.458 412.913 466.458 412.913Z" fill="white" stroke="black" stroke-width="5" stroke-miterlimit="10"/>
<path d="M466.458 412.913C454.778 378.849 460.586 349.467 460.586 349.467C460.586 349.467 447.124 345.899 431.554 333.732C415.985 321.566 419.873 280.521 419.873 280.521C419.873 280.521 419.064 280.688 400.09 280.688C381.115 280.688 380.116 280.521 380.116 280.521C380.116 280.521 384.193 321.566 368.624 333.732C353.052 345.899 339.596 349.467 339.596 349.467C339.596 349.467 345.4 378.848 333.723 412.913C333.723 412.913 346.091 485.118 331.492 546.435C331.492 546.435 360.678 558.558 400.09 558.558C439.5 558.558 467.504 546.435 467.504 546.435C452.906 485.118 466.458 412.913 466.458 412.913Z" stroke="black" stroke-width="5" stroke-miterlimit="10"/>
<path d="M365.444 195.657C342.623 242.976 378.651 299.807 399.377 300.082C420.105 300.354 457.619 244.49 436.05 196.587C422.455 166.392 379.831 165.83 365.444 195.657Z" fill="white" stroke="black" stroke-width="5" stroke-miterlimit="10"/>
<path d="M365.444 195.657C342.623 242.976 378.651 299.807 399.377 300.082C420.105 300.354 457.619 244.49 436.05 196.587C422.455 166.392 379.831 165.83 365.444 195.657Z" stroke="black" stroke-width="5" stroke-miterlimit="10"/>
<path d="M533.836 252.63C515.642 242.635 520.257 229.817 504.109 217.002C487.965 204.187 467.963 212.84 459.516 192.134C451.144 171.62 423.882 159.904 400.125 160.192H400.088H400.052C376.295 159.904 349.029 171.62 340.664 192.134C332.216 212.84 312.214 204.186 296.071 217.002C279.923 229.817 284.538 242.635 266.341 252.63C248.144 262.628 246.663 261.704 247.375 269.551C248.425 281.125 289.804 276.546 320.841 277.34C326.92 277.494 349.076 283.655 355.002 285.042C367.119 287.882 382.684 287.48 383.006 283.136C383.522 276.213 381.302 259.749 376.58 251.324C371.86 242.896 362.108 245.614 362.108 233.25C362.108 221.717 366.843 226.206 377.734 215.949C387.334 206.902 396.947 196.429 400.088 187.921C403.229 196.429 412.843 206.903 422.442 215.949C433.334 226.205 438.069 221.717 438.069 233.25C438.069 245.614 428.319 242.895 423.597 251.324C418.874 259.749 416.659 276.213 417.173 283.136C417.495 287.48 433.06 287.882 445.176 285.042C451.101 283.655 473.255 277.494 479.34 277.34C510.371 276.545 551.751 281.125 552.8 269.551C553.516 261.704 552.036 262.628 533.836 252.63Z" fill="#100200" stroke="black" stroke-width="5" stroke-miterlimit="10"/>
<path d="M355.102 342.973C355.102 342.973 371.999 368.412 400.331 368.412C428.663 368.412 445.561 342.973 445.561 342.973" stroke="black" stroke-width="5" stroke-miterlimit="10"/>
<path d="M543.417 682.544C543.417 682.544 525.451 662.434 461.177 654.001C477.69 648.449 503.847 639.567 514.948 635.405C549.743 622.313 537.089 622.313 537.089 622.313C527.6 617.073 483.318 627.058 454.849 619.202C426.382 611.346 420.055 618.217 416.893 628.693C415.723 632.543 405.885 633.442 401.078 635.407C398.041 632.577 383.325 630.482 372.61 628.693C353.632 625.528 333.328 616.452 324.33 611.116C322.242 609.878 319.656 609.546 317.447 610.541C314.41 611.907 312.512 615.503 322.001 624.929C326.999 629.903 336.425 636.715 346.989 643.707C287.619 651.247 252.414 669.451 252.414 669.451" fill="white"/>
<path d="M543.417 682.544C543.417 682.544 525.451 662.434 461.177 654.001C477.69 648.449 503.847 639.567 514.948 635.405C549.743 622.313 537.089 622.313 537.089 622.313C527.6 617.073 483.318 627.058 454.849 619.202C426.382 611.346 420.055 618.217 416.893 628.693C415.723 632.543 405.885 633.442 401.078 635.407C398.041 632.577 383.325 630.482 372.61 628.693C353.632 625.528 333.328 616.452 324.33 611.116C322.242 609.878 319.656 609.546 317.447 610.541C314.41 611.907 312.512 615.503 322.001 624.929C326.999 629.903 336.425 636.715 346.989 643.707C287.619 651.247 252.414 669.451 252.414 669.451" stroke="black" stroke-width="5" stroke-miterlimit="10"/>
<path d="M543.417 682.544C543.417 682.544 525.451 662.434 461.177 654.001C477.69 648.449 503.847 639.567 514.948 635.405C549.743 622.313 537.089 622.313 537.089 622.313C527.6 617.073 483.318 627.058 454.849 619.202C426.382 611.346 420.055 618.217 416.893 628.693C415.723 632.543 405.885 633.442 401.078 635.407C398.041 632.577 383.325 630.482 372.61 628.693C353.632 625.528 333.328 616.452 324.33 611.116C322.242 609.878 319.656 609.546 317.447 610.541C314.41 611.907 312.512 615.503 322.001 624.929C326.999 629.903 336.425 636.715 346.989 643.707C287.619 651.247 252.414 669.451 252.414 669.451" stroke="black" stroke-width="5" stroke-miterlimit="10"/>
<path d="M347.309 643.261C369.45 645.881 401.081 635.405 401.081 635.405C401.081 635.405 414.013 661.671 432.854 664.161" fill="white"/>
<path d="M347.309 643.261C369.45 645.881 401.081 635.405 401.081 635.405C401.081 635.405 414.013 661.671 432.854 664.161" stroke="black" stroke-width="5" stroke-miterlimit="10"/>
<path d="M347.309 643.261C369.45 645.881 401.081 635.405 401.081 635.405C401.081 635.405 414.013 661.671 432.854 664.161" stroke="black" stroke-width="5" stroke-miterlimit="10" stroke-linecap="square"/>
<path d="M395.035 677.489L470.666 650.836" stroke="black" stroke-width="5" stroke-miterlimit="10"/>
<path d="M395.035 677.489L470.666 650.836" stroke="black" stroke-width="5" stroke-miterlimit="10"/>
</svg>
